!!!COM: Barbarino, Bartolomeo
!!!CDT:
!!!PTL: Canzonette a una e due
!!!PPP: Venice
!!!PPR: Amadino
!!!PDT: 1616
!!!PUB-format:
!!!RISM: B 877
!!!rime: 164
!!!OTL: Vuol che l'ami costei, ma duro freno
!!!AGN: Madrigal
!!!SCT: Trm0164a
!!!SCA: Trm0164a
!!!original-voices: 1+bc
!!!extant-voices: 1+bc
!!!complete: Y
!!!final: F
**kern	**kern	**text
*part2	*part1	*part1
*staff2	*staff1	*staff1
*I"[B. C.]	*I"[Soprano o Tenore]	*
*I'B. C.	*I'S/T	*
*oclefF4	*oclefC1	*
*clefF4	*clefG2	*
*k[b-]	*k[b-]	*
*F:	*F:	*
*omet(C)	*omet(C)	*
*M2/2	*M2/2	*
=1	=1	=1
1F	2.a	Vuol
.	4a	ch'io
=2	=2	=2
2D	4b-y	l'a-
.	8f	-mi
.	8e	co-
2E-X	[2g	-stei,
=3	=3	=3
2E-X	8g]	.
.	8cc	ma_un
.	8g	du-
.	8a	-ro
2D	4b-y	fre-
.	8b-y	-no
.	8g	M'im-
=4	=4	=4
2D	8a	-po-
.	8g	-ne_an-
.	8a	-cor
.	4g	d'a-
2D	.	.
.	4g	-spro
.	8f	si-
=5	=5	=5
2C	2g	-len-
2C	4.g	-tio.
.	8g	Hor
=6	=6	=6
2E	4cc	qua-
.	4.cc	-le
2E	.	.
.	8b-y	Hav-
.	8a	-rò
.	8g	da
=7	=7	=7
2F	4.a	lei,
.	8g	se
2F	8a	non
.	8cc	gl'è
.	8b-y	no-
.	8a	-to_il
=8	=8	=8
2D	2b-y	ma-
2D	8b-y	-le,
.	8f	O
.	8g	me-
.	8a	-di-
=9	=9	=9
8DL	2b-y	-ci-
8BB-y	.	.
8C	.	.
8DJ	.	.
2E-X	8b-y	-na
.	8g	o
.	8a-X	re-
.	8b-y	-fri-
=10	=10	=10
8E-i-iL	[2cc	-ge-
8C	.	.
8D	.	.
8E-XJ	.	.
8FL	2cc]	.
8FF	.	.
8AA-X	.	.
8BB-yJ	.	.
=11	=11	=11
8CL	4.cc	.
8D-X	.	.
8E-i	.	.
8FJ	8a-X	-rio_al-
2D-i	2f	-me-
=12	=12	=12
1C	1g	-no?
=13	=13	=13
2C	2g	E
4BBnX	8g	co-
.	8g	-m'es-
4C	8g	-ser
.	8a	po-
=14	=14	=14
2GG	8b-y	-tran
.	8b-y	ch'ar-
.	8b-y	-den-
.	8cc	-do_il
2BB-y	2dd	se-
=15	=15	=15
2FF	2cc	-no
4BB-y	4dd	Non
4FF	4a	tra-
=16	=16	=16
4GG	4b-y	-lu-
8DL	8f	-chi
8E-XJ	8g	fa-
2D	4a	-vil-
.	[4b-y	-la_o
=17	=17	=17
2E-X	4b-]	.
.	2cc	fu-
2D	.	.
.	4f	-mo_e-
=18	=18	=18
2C	16gL	-sa-
.	16f	.
.	16e-X	.
.	16f	.
.	16g	.
.	16a	.
.	16b-y	.
.	16ccJ	.
2BB-y	2dd	-le,
=19	=19	=19
2BB-y	4r	.
.	4dd	E
2F	8cc	co-
.	8b-y	-me
.	8b-y	che
.	8a	da
=20	=20	=20
2G	2b-y	pia-
2E-X	[2cc	-ga_a-
=21	=21	=21
1D	4cc]	.
.	8.b-y	-spra_e
.	16b-y	mor-
.	2a	-ta-
=22	=22	=22
4D	4a	-le
4AA	4cc	Hu-
4BB-y	4dd	-mor
4D	4a	non
=23	=23	=23
2GG	16ddL	ver-
.	16cc	.
.	16b-y	.
.	16a	.
.	8g	.
.	16f	.
.	16eJ	.
4GG	4.d	-si
[4D	.	.
.	8a	il
=24	=24	=24
4D]	4a	grem-
8CL	4b-y	-bo_i'
8BB-yJ	.	.
4AA	[2cc	n'ho
4BB-y	.	.
=25	=25	=25
1C	4cc]	.
.	16aL	già
.	16b-y	.
.	16cc	.
.	16b-yJ	.
.	2g	pie-
=26	=26	=26
1FF	1f	-no?
=27	=27	=27
2FF	2.a	Ta-
2GG	.	.
.	8.f	-cer
.	16e	ben
=28	=28	=28
2AA	2e	pos-
2AA	8e	-so,
.	8a	e
.	8f	ta-
.	8e	-ce-
=29	=29	=29
2BBnX	4d	-rò:
.	4r	.
2C#X	4r	.
.	4a	ch'io
=30	=30	=30
2D	4b-y	to-
.	4a	-glia
4AA	4cc	San-
4BB-y	8f	-gue_a
.	8e	le
=31	=31	=31
2C	2e	pia-
2C	4e	-ghe
.	4g	e
=32	=32	=32
2GG	4.b-y	lu-
.	8a	-ce_e
2FF	4.cc	fiu-
.	8b-y	-me_al
=33	=33	=33
4BB-y	4dd	fo-
4GG	8dd	-co
.	8b-y	Non
2D	4.a	bra-
.	8g	-mi
=34	=34	=34
2BBnX	2.g	già,
4C	.	.
4GG	4b-y	que-
=35	=35	=35
2C	8ee-X	-st'è_im-
.	8dd	-pos-
.	8cc	-si-
.	8b-y	-bil
2D	8b-yL	vo-
.	16cc	.
.	16b-yJ	.
.	4a	.
=36	=36	=36
1GG	1g	-glia.
=37	=37	=37
2GG	4g	Trop-
.	4a	-po
4GG	4b-y	spi-
8GGL	8b-y	-se
8AAJ	8cc	pun-
=38	=38	=38
4BB-y	4dd	-gen-
4C	4ee	-te_a
4D	4ff	den-
4BB-y	4dd	-tr'i
=39	=39	=39
4C	8.ee-XL	col-
.	16ff	.
4BB-y	8.dd	.
.	16ee-iJ	.
2FF	8a	.
.	4b-y	.
.	8a	.
=40	=40	=40
2BB-y	2b-y	-pi,
2BB-y	8r	.
.	8dd	Trop-
.	8a	-po_a-
.	8b-y	-du-
=41	=41	=41
8FFL	2.cc	-nò
8F	.	.
8D	.	.
8EJ	.	.
4F	.	.
4BB-y	4dd	gran
=42	=42	=42
2FF	16ccL	fiam-
.	16b-y	.
.	16a	.
.	16g	.
.	16f	.
.	16c	.
.	16d	.
.	16eJ	.
2D	16fL	.
.	16g	.
.	16a	.
.	16e	.
.	16f	.
.	16g	.
.	16a	.
.	16b-yJ	.
=43	=43	=43
2AA	4.cc	-me
.	8a	in
2D	4.f	pic-
.	8e	-ciol
=44	=44	=44
2C	2e	lo-
2C	8e	-co:
.	8cc	S'ap-
.	8cc	-pa-
.	8cc	-ri-
=45	=45	=45
2E	2.cc	-rà,
4F	.	.
4F	4a	na-
=46	=46	=46
4BB-y	2dd	-tu-
4AA	.	.
4GG	[2b-y	-ra
8AAL	.	.
8BB-yJ	.	.
=47	=47	=47
1C	4b-]	.
.	8a	se
.	8g	n'in-
.	2g	-col-
=48	=48	=48
2.FF	2.f	-pi,
4FF	4a	na-
=49	=49	=49
2BB-y	2dd	-tu-
2GG	4b-y	-ra
.	8a	se
.	8b-y	n'in-
=50	=50	=50
4C	16gL	-col-
.	16e	.
.	16a	.
.	16g	.
4D	16f	.
.	16a	.
.	16b-y	.
.	16ccJ	.
4BB-y	16ddL	.
.	16cc	.
.	16b-y	.
.	16a	.
4C	16g	.
.	16c	.
.	16d	.
.	16eJ	.
=51	=51	=51
4AA	16fL	.
.	16e	.
.	16d	.
.	16c	.
4BB-y	16d	.
.	16e	.
.	16f	.
.	16dJ	.
4GG	16b-yL	.
.	16a	.
.	16g	.
.	16f	.
4C	16e	.
.	16f	.
.	16g	.
.	16eJ	.
=52	=52	=52
2FF	16aL	.
.	16b-y	.
.	16cc	.
.	16b-y	.
.	16cc	.
.	16a	.
.	16b-y	.
.	16aJ	.
2C	16gL	.
.	16a	.
.	16b-y	.
.	16aJ	.
.	4g	.
=53	=53	=53
1FFl	1fl	-pi.
==	==	==
*-	*-	*-
!!!system-decoration: [*]
!!!RDF**kern: i = editorial accidental
!!!RDF**kern: l = terminal long
!!!ENC: Emiliano Ricciardi
!!!END: 2019/01/30
!!!EED: Schleuse, Paul
!!!EEV: 2019/01/30
!!!YEC: Copyright 2018 Emiliano Ricciardi, All Rights Reserved
!!!ONB: Translated from MusicXML on 2019/01/30 and edited by Craig Stuart Sapp
!!@@BEGIN:	VERSEDATA
!!@SOLERTI:	164
!!@CATALOGNUM:	Trm0164
!!@LAST_MODIFIED: 2020/07/12
!!@TITLE:		Vuol che l'ami costei, ma duro freno
!!@GENRE:		sonetto
!!@MANUSRC:	C, Flc<sub>2</sub>, Mi, Y, VE<sub>1</sub>
!!@PRINTSRC:	8, 9, 15, 20, 24, 29, 33, 67, 85, 87, 141, 166, 169
!!@@BEGIN:	VERSES
!!@ABOUTIT:	Dice che la signora Laura desiderando ch'egli celi l'amor suo desidera cosa impossibile.
!!@ABOUTEN:	He says that lady Laura, in wishing that he hide his love, wishes for something impossible.
!!@EDITOR:	Solerti, Angelo
!!@EDITION_TITLE: Le Rime di Torquato Tasso
!!@EDITION_LOC:	Bologna
!!@EDITION_PUB:	Romagnoli-Dall’Acqua
!!@EDITION_DATE:  1898-1902
!!@EDITION_VOL:	2
!!@EDITION_PAGE:  246
!!@TRANSLATOR:	Emiliano Ricciardi and Amyrose McCue Gill
!!@TRANSLATION_TITLE:
!!@TRANSLATION_LOC:
!!@TRANSLATION_PUB:
!!@TRANSLATION_DATE:
!!@TRANSLATION_PAGE:
!!@VERSE:
!!Vuol che l'ami costei, ma duro freno
!!Mi pone ancor d'aspro silenzio. Or quale
!!Avrò da lei, se non conosce il male,
!!O medicina o refrigerio almeno?
!!@VERSE:
!!E come esser potrà ch'ardendo il seno
!!Non si dimostri il mio dolor mortale,
!!Né risplenda la fiamma a quella eguale
!!Ch'accende i monti in riva la mar Tirreno?
!!@VERSE:
!!Tacer ben posso e tacerò: ch'io toglia
!!Sangue a le piaghe e luce al vivo foco
!!Non brami già; questa impossibil voglia.
!!@VERSE:
!!Troppo spinse pungenti a dentro i colpi
!!E troppo ardore accolse in picciol loco:
!!S'apparirà, natura e sé incolpi.
!!@TVERSE:
!!She wants me to love her, but a severe restraint
!!She still places upon me of harsh silence. Now what
!!Will I have of her, if she does not recognize the ill:
!!Either medicine or, at least, respite?
!!@TVERSE:
!!And how can it be that my burning breast
!!Does not prove my mortal suffering,
!!Nor does the flame shining equal to that
!!Which lights the mountains along the shore of the Tyrrhenian sea?
!!@TVERSE:
!!I can certainly be silent, and will be silent: that I remove
!!Blood from wounds and light from living fire,
!!Do not desire now; this is an impossible wish.
!!@TVERSE:
!!Too deeply driven are the cutting blows,
!!And too much passion is contained in a small place:
!!If it emerges, nature and itself are at fault.
!!@@END:		VERSES
!!@OTHER_CRIT_ED:   Torquato Tasso, <i>Rime d’amore (secondo il codice
!!		Chigiano L VIII 302)</i>, eds. Franco Gavazzeni and
!!		Vercingetorige Martignone, vol. 4 of <i>Edizione
!!		Nazionale delle opere di Torquato Tasso</i>
!!		(Alessandria: Edizioni Dell’Orso, 2004), 131.
!!@ATTRIBUTION_ABOUT:	Secure
!!		<br>
!!		Among other authoritative sources (see Literary Sources), this poem appears in the autograph Chigiano
!!		L.VIII.302 (Biblioteca Vaticana, Rome), compiled
!!		around 1584&ndash;85.
!!@DATING:	Before 1581
!!@DEDICATEE:	Peperara, Laura ?
!!@COMMENTARY:
!!@@END:		VERSEDATA
!!@@BEGIN:	SETTING
!!@CATALOGNUM:	Trm0164a
!!@RIMETITLE:	Vuol che l'ami costei, ma duro freno
!!@SOLERTI:	164
!!@COMPOSER:	Barbarino, Bartolomeo
!!@PRINCEPSTITLE:	Canzonette a una e due
!!@PRINCEPSLOC:	Venetia
!!@NORMLOC:	Venice
!!@NORMPUB:	Amadino
!!@NORMPUBSHORT:	Amadino
!!@PRINCEPSPUB:	Amadino
!!@PRINCEPSYEAR:	1616
!!@PRINCEPSRISM:	B 877
!!@REPRINTS:	
!!@OVOICES:	1+bc
!!@EXTANTVOICES:	1+bc
!!@PARTBOOKS:	
!!@EXTPARTBOOKS:	
!!@OCLEFS:	C1,F4
!!@OMENSURATION:	C
!!@OKEYSIG:	b-
!!@FINAL:	F
!!@TIMPEDITOR:	Schleuse, Paul
!!@YOUTUBE:	c6vgpu_A5AI
!!@YOUTUBESTART:	14
!!@YOUTUBEEND:	212
!!@NOTE:		
!!@@END:		SETTING
